images/companyLogos/diginius.svg

<svg width="140" height="37" viewBox="0 0 140 37" fill="none" xmlns="http://www.w3.org/2000/svg">
<path fill-rule="evenodd" clip-rule="evenodd" d="M55.1979 26.4465H57.2534C59.7113 26.4465 61.4157 26.294 62.3671 25.9898C63.704 25.5553 64.7557 24.7749 65.5214 23.6476C66.2868 22.5187 66.67 21.1404 66.67 19.5106C66.67 17.8006 66.2547 16.3388 65.4252 15.1273C64.5945 13.9146 63.4378 13.0841 61.9559 12.6339C60.8433 12.2973 59.0098 12.1282 56.4559 12.1282H55.1979V26.4465ZM53.4935 28.1221V10.3928H57.1811C59.8396 10.3928 61.7702 10.6058 62.9714 11.0315C64.6958 11.634 66.0433 12.6785 67.0139 14.1647C67.9857 15.6519 68.4716 17.4235 68.4716 19.4805C68.4716 21.2561 68.0859 22.8193 67.3163 24.1691C66.5475 25.5193 65.5477 26.5154 64.319 27.1574C63.0898 27.8007 61.3673 28.1221 59.1506 28.1221H53.4935Z" fill="#1A1A1A"/>
<mask id="mask0_76_191" style="mask-type:alpha" maskUnits="userSpaceOnUse" x="0" y="0" width="140" height="37">
<path d="M0 36.6812H140V0H0V36.6812Z" fill="#1A1A1A"/>
</mask>
<g mask="url(#mask0_76_191)">
<path fill-rule="evenodd" clip-rule="evenodd" d="M71.4547 28.428H73.1292V15.2206H71.4547V28.428ZM72.2863 9.78174C72.6675 9.78174 72.9929 9.91893 73.2624 10.1946C73.533 10.4704 73.6681 10.8015 73.6681 11.1897C73.6681 11.5704 73.533 11.8989 73.2624 12.173C72.9929 12.4488 72.6675 12.586 72.2863 12.586C71.9133 12.586 71.5913 12.4488 71.3219 12.173C71.0512 11.8989 70.917 11.5704 70.917 11.1897C70.917 10.8015 71.0512 10.4704 71.3219 10.1946C71.5913 9.91893 71.9133 9.78174 72.2863 9.78174Z" fill="#1A1A1A"/>
<path fill-rule="evenodd" clip-rule="evenodd" d="M83.1618 16.3043C82.1985 16.3043 81.3046 16.5362 80.481 16.9995C79.6558 17.4632 79.0089 18.1039 78.5395 18.9224C78.07 19.7406 77.8364 20.626 77.8364 21.5765C77.8364 23.0194 78.3208 24.2126 79.2914 25.1561C80.2622 26.0987 81.519 26.5709 83.0643 26.5709C84.6244 26.5709 85.88 26.103 86.8303 25.1685C87.7807 24.2331 88.2556 23.0036 88.2556 21.4803C88.2556 20.4884 88.0378 19.6035 87.6006 18.8261C87.1635 18.0487 86.5453 17.4334 85.7448 16.9813C84.9446 16.5305 84.0833 16.3043 83.1618 16.3043ZM88.1708 15.0108H89.869V25.4944C89.869 27.3413 89.7071 28.6913 89.3837 29.5458C88.9389 30.755 88.1665 31.6862 87.0669 32.3389C85.9668 32.9914 84.6459 33.3187 83.1006 33.3187C81.9678 33.3187 80.9513 33.1583 80.0501 32.84C79.1479 32.5194 78.4141 32.0914 77.8482 31.5537C77.2827 31.0156 76.7607 30.2293 76.2828 29.1945H78.127C78.6294 30.0659 79.2766 30.7097 80.0703 31.1299C80.8631 31.5486 81.8482 31.7591 83.0214 31.7591C84.1783 31.7591 85.1569 31.5429 85.9549 31.1136C86.7522 30.6833 87.3211 30.1429 87.6608 29.4932C88.0006 28.8418 88.1708 27.7921 88.1708 26.3414V25.6642C87.5311 26.4705 86.7501 27.0891 85.8275 27.5193C84.905 27.9519 83.9256 28.1665 82.8883 28.1665C81.6746 28.1665 80.5335 27.8665 79.4652 27.2665C78.396 26.6652 77.5708 25.8576 76.9876 24.8418C76.405 23.826 76.1135 22.71 76.1135 21.4921C76.1135 20.2745 76.4166 19.1402 77.0246 18.0882C77.6319 17.0361 78.4708 16.204 79.5435 15.591C80.6156 14.9787 81.7473 14.6724 82.9378 14.6724C83.9256 14.6724 84.8458 14.8764 85.6997 15.2833C86.5536 15.6901 87.3769 16.361 88.1708 17.2965V15.0108Z" fill="#1A1A1A"/>
<path fill-rule="evenodd" clip-rule="evenodd" d="M93.158 28.428H94.8333V15.2206H93.158V28.428ZM93.99 9.78174C94.3711 9.78174 94.6966 9.91893 94.9666 10.1946C95.2369 10.4704 95.3712 10.8015 95.3712 11.1897C95.3712 11.5704 95.2369 11.8989 94.9666 12.173C94.6966 12.4488 94.3711 12.586 93.99 12.586C93.6164 12.586 93.2943 12.4488 93.0246 12.173C92.7544 11.8989 92.6201 11.5704 92.6201 11.1897C92.6201 10.8015 92.7544 10.4704 93.0246 10.1946C93.2943 9.91893 93.6164 9.78174 93.99 9.78174Z" fill="#1A1A1A"/>
<path fill-rule="evenodd" clip-rule="evenodd" d="M98.4279 15.01H100.142V17.3605C100.827 16.46 101.586 15.7871 102.419 15.3411C103.251 14.8952 104.156 14.6724 105.136 14.6724C106.132 14.6724 107.015 14.9215 107.786 15.42C108.557 15.9182 109.125 16.5888 109.493 17.4318C109.861 18.276 110.044 19.59 110.044 21.3731V28.1221H108.331V21.8667C108.331 20.3575 108.267 19.349 108.139 18.8424C107.942 17.9751 107.56 17.3224 106.998 16.8838C106.434 16.4462 105.699 16.2268 104.794 16.2268C103.757 16.2268 102.828 16.5642 102.009 17.239C101.188 17.9144 100.648 18.7499 100.386 19.7465C100.223 20.3976 100.142 21.5871 100.142 23.3136V28.1221H98.4279V15.01Z" fill="#1A1A1A"/>
<path fill-rule="evenodd" clip-rule="evenodd" d="M113.332 28.428H115.007V15.2206H113.332V28.428ZM114.164 9.78174C114.546 9.78174 114.871 9.91893 115.14 10.1946C115.411 10.4704 115.546 10.8015 115.546 11.1897C115.546 11.5704 115.411 11.8989 115.14 12.173C114.871 12.4488 114.546 12.586 114.164 12.586C113.791 12.586 113.469 12.4488 113.199 12.173C112.929 11.8989 112.795 11.5704 112.795 11.1897C112.795 10.8015 112.929 10.4704 113.199 10.1946C113.469 9.91893 113.791 9.78174 114.164 9.78174Z" fill="#1A1A1A"/>
<path fill-rule="evenodd" clip-rule="evenodd" d="M118.297 14.978H120.005V21.1C120.005 22.5952 120.087 23.6232 120.25 24.1855C120.495 24.9891 120.96 25.6234 121.649 26.0899C122.336 26.5562 123.158 26.7892 124.11 26.7892C125.064 26.7892 125.873 26.5613 126.536 26.1079C127.2 25.6533 127.658 25.057 127.912 24.3183C128.082 23.8118 128.168 22.7396 128.168 21.1V14.978H129.913V21.4133C129.913 23.2208 129.698 24.5832 129.272 25.4989C128.845 26.4145 128.203 27.1318 127.345 27.6505C126.486 28.1688 125.41 28.4278 124.117 28.4278C122.823 28.4278 121.744 28.1688 120.878 27.6505C120.012 27.1318 119.365 26.4096 118.937 25.4808C118.51 24.5537 118.297 23.1569 118.297 21.2928V14.978Z" fill="#1A1A1A"/>
<path fill-rule="evenodd" clip-rule="evenodd" d="M140.294 16.4399L139.195 17.5581C138.281 16.6843 137.388 16.2475 136.514 16.2475C135.96 16.2475 135.484 16.4282 135.089 16.7883C134.693 17.1495 134.494 17.57 134.494 18.0511C134.494 18.4755 134.658 18.8806 134.984 19.2648C135.31 19.6591 135.995 20.1186 137.039 20.6479C138.312 21.2979 139.177 21.9222 139.633 22.5237C140.081 23.1333 140.306 23.8182 140.306 24.5801C140.306 25.6548 139.923 26.5637 139.156 27.3096C138.391 28.0553 137.431 28.4278 136.283 28.4278C135.516 28.4278 134.786 28.2632 134.089 27.935C133.391 27.607 132.815 27.1533 132.358 26.5765L133.432 25.3743C134.306 26.3442 135.232 26.8285 136.21 26.8285C136.896 26.8285 137.479 26.6126 137.96 26.1793C138.441 25.7459 138.683 25.2371 138.683 24.6522C138.683 24.1711 138.523 23.7427 138.205 23.3656C137.887 22.9974 137.17 22.5322 136.051 21.9713C134.852 21.3616 134.037 20.7607 133.605 20.1677C133.172 19.574 132.956 18.8973 132.956 18.1351C132.956 17.1418 133.301 16.3155 133.989 15.6579C134.678 15.0004 135.549 14.6724 136.6 14.6724C137.823 14.6724 139.055 15.262 140.294 16.4399Z" fill="#1A1A1A"/>
<path fill-rule="evenodd" clip-rule="evenodd" d="M22.246 13.3102V23.3377H23.6432C25.0189 23.3377 26.0167 23.1789 26.6366 22.8626C27.2568 22.5446 27.7639 22.0102 28.1576 21.2615C28.5514 20.5113 28.7488 19.5876 28.7488 18.4911C28.7488 16.8048 28.2792 15.4954 27.34 14.5652C26.495 13.7283 25.1372 13.3102 23.2675 13.3102H22.246ZM19.2577 10.3928H22.8235C25.1211 10.3928 26.8287 10.6794 27.9454 11.2521C29.0627 11.8239 29.9828 12.7556 30.7064 14.0451C31.4287 15.3349 31.7904 16.8399 31.7904 18.5622C31.7904 19.786 31.5881 20.9118 31.1835 21.9383C30.7788 22.9652 30.2207 23.817 29.5087 24.4942C28.7962 25.171 28.0245 25.6387 27.1936 25.8987C26.3635 26.1584 24.925 26.288 22.8766 26.288H19.2577V10.3928Z" fill="#1A1A1A"/>
<path fill-rule="evenodd" clip-rule="evenodd" d="M10.4613 18.1865C10.4613 9.43665 17.5153 2.34309 26.2165 2.34309C26.5531 2.34309 26.8869 2.35736 27.2182 2.37869C23.8532 0.460657 19.8282 -0.419256 15.5649 0.192038C7.44533 1.35751 1.00325 8.07699 0.112326 16.2755C-1.08794 27.3306 7.48982 36.6812 18.2389 36.6812C21.7535 36.6812 25.0329 35.6797 27.8166 33.9491C27.2905 34.0017 26.7566 34.0297 26.2165 34.0297C17.5153 34.0297 10.4613 26.9363 10.4613 18.1865Z" fill="#FCCE00"/>
<path fill-rule="evenodd" clip-rule="evenodd" d="M41.8777 18.2104C41.8777 9.82211 35.3945 2.96368 27.2053 2.44556C32.7021 5.58771 36.4146 11.5371 36.4146 18.3644C36.4146 24.9428 32.9689 30.7071 27.8008 33.9303C35.707 33.1262 41.8777 26.3944 41.8777 18.2104Z" fill="#1A1A1A"/>
</g>
</svg>

<svg fill="none" xmlns="http://www.w3.org/2000/svg" viewBox="0 0 140 37">
  <path
    fill-rule="evenodd"
    clip-rule="evenodd"
    d="M55.198 26.447h2.055c2.458 0 4.163-.153 5.114-.457 1.337-.435 2.389-1.215 3.154-2.342.766-1.13 1.149-2.508 1.149-4.137 0-1.71-.415-3.172-1.245-4.384-.83-1.212-1.987-2.043-3.47-2.493-1.112-.337-2.945-.506-5.5-.506h-1.257v14.319Zm-1.705 1.675v-17.73h3.688c2.659 0 4.59.214 5.79.64 1.725.602 3.072 1.646 4.043 3.133.972 1.487 1.458 3.259 1.458 5.316 0 1.775-.386 3.338-1.156 4.688-.769 1.35-1.768 2.346-2.997 2.988-1.23.644-2.952.965-5.168.965h-5.658Z"
    fill="#1A1A1A"
  />
  <mask
    id="a"
    style="mask-type: alpha"
    maskUnits="userSpaceOnUse"
    x="0"
    y="0"
    width="140"
    height="37"
  >
    <path d="M0 36.681h140V0H0v36.681Z" fill="#1A1A1A" />
  </mask>
  <g mask="url(#a)" fill-rule="evenodd" clip-rule="evenodd">
    <path
      d="M71.455 28.428h1.674V15.221h-1.674v13.207Zm.831-18.646c.382 0 .707.137.976.413.271.275.406.607.406.995 0 .38-.135.709-.406.983-.27.276-.594.413-.976.413-.373 0-.695-.137-.964-.413a1.35 1.35 0 0 1-.405-.983c0-.388.134-.72.405-.995.27-.276.591-.413.964-.413ZM83.162 16.304c-.964 0-1.857.232-2.681.696a5.048 5.048 0 0 0-1.941 1.922 5.244 5.244 0 0 0-.704 2.654c0 1.443.485 2.637 1.455 3.58.971.943 2.228 1.415 3.773 1.415 1.56 0 2.816-.468 3.766-1.402.95-.936 1.426-2.165 1.426-3.689 0-.992-.218-1.877-.655-2.654a4.779 4.779 0 0 0-1.856-1.845 5.179 5.179 0 0 0-2.583-.677Zm5.009-1.293h1.698v10.483c0 1.847-.162 3.197-.485 4.052a5.27 5.27 0 0 1-2.317 2.793c-1.1.652-2.421.98-3.966.98-1.133 0-2.15-.16-3.05-.479-.903-.32-1.637-.749-2.203-1.286-.565-.538-1.087-1.325-1.565-2.36h1.844c.502.872 1.15 1.516 1.943 1.936.793.419 1.778.63 2.951.63 1.157 0 2.136-.217 2.934-.646.797-.43 1.366-.971 1.706-1.62.34-.652.51-1.702.51-3.153v-.677a6.417 6.417 0 0 1-2.344 1.855 6.836 6.836 0 0 1-2.939.648c-1.213 0-2.355-.3-3.423-.9-1.069-.602-1.894-1.41-2.477-2.425-.583-1.016-.874-2.132-.874-3.35s.303-2.352.91-3.404a6.678 6.678 0 0 1 2.52-2.497 6.743 6.743 0 0 1 3.394-.919c.988 0 1.908.204 2.762.611.854.407 1.677 1.078 2.47 2.014V15.01ZM93.158 28.428h1.675V15.221h-1.675v13.207Zm.832-18.646c.381 0 .707.137.977.413.27.275.404.607.404.995 0 .38-.134.709-.404.983-.27.276-.596.413-.977.413-.374 0-.696-.137-.965-.413a1.352 1.352 0 0 1-.405-.983c0-.388.134-.72.405-.995.27-.276.591-.413.965-.413ZM98.428 15.01h1.714v2.35c.685-.9 1.444-1.573 2.277-2.019a5.66 5.66 0 0 1 2.717-.669c.996 0 1.879.25 2.65.748a4.475 4.475 0 0 1 1.707 2.012c.368.844.551 2.158.551 3.941v6.75h-1.713v-6.256c0-1.51-.064-2.518-.192-3.025-.197-.867-.579-1.52-1.141-1.958-.564-.438-1.299-.657-2.204-.657-1.037 0-1.966.337-2.785 1.012-.821.675-1.361 1.51-1.623 2.508-.163.65-.244 1.84-.244 3.567v4.808h-1.714V15.01ZM113.332 28.428h1.675V15.221h-1.675v13.207Zm.832-18.646c.382 0 .707.137.976.413.271.275.406.607.406.995 0 .38-.135.709-.406.983a1.312 1.312 0 0 1-.976.413c-.373 0-.695-.137-.965-.413a1.352 1.352 0 0 1-.404-.983c0-.388.134-.72.404-.995.27-.276.592-.413.965-.413ZM118.297 14.978h1.708V21.1c0 1.495.082 2.523.245 3.085.245.804.71 1.438 1.399 1.905.687.466 1.509.7 2.461.7.954 0 1.763-.229 2.426-.682a3.503 3.503 0 0 0 1.376-1.79c.17-.506.256-1.578.256-3.218v-6.122h1.745v6.435c0 1.808-.215 3.17-.641 4.086a4.857 4.857 0 0 1-1.927 2.152c-.859.518-1.935.777-3.228.777-1.294 0-2.373-.26-3.239-.777a4.822 4.822 0 0 1-1.941-2.17c-.427-.927-.64-2.324-.64-4.188v-6.315ZM140.294 16.44l-1.099 1.118c-.914-.874-1.807-1.31-2.681-1.31-.554 0-1.03.18-1.425.54-.396.361-.595.782-.595 1.263 0 .425.164.83.49 1.214.326.394 1.011.854 2.055 1.383 1.273.65 2.138 1.274 2.594 1.876.448.61.673 1.294.673 2.056 0 1.075-.383 1.984-1.15 2.73-.765.745-1.725 1.118-2.873 1.118a5.086 5.086 0 0 1-2.194-.493 4.749 4.749 0 0 1-1.731-1.358l1.074-1.203c.874.97 1.8 1.454 2.778 1.454.686 0 1.269-.215 1.75-.649.481-.433.723-.942.723-1.527 0-.48-.16-.91-.478-1.286-.318-.369-1.035-.834-2.154-1.395-1.199-.61-2.014-1.21-2.446-1.803a3.36 3.36 0 0 1-.649-2.033c0-.993.345-1.82 1.033-2.477.689-.658 1.56-.986 2.611-.986 1.223 0 2.455.59 3.694 1.768ZM22.246 13.31v10.028h1.397c1.376 0 2.374-.16 2.994-.475.62-.318 1.127-.853 1.52-1.601.394-.75.592-1.674.592-2.77 0-1.687-.47-2.997-1.409-3.927-.845-.837-2.203-1.255-4.073-1.255h-1.021Zm-2.988-2.917h3.566c2.297 0 4.005.286 5.121.86 1.118.57 2.038 1.503 2.761 2.792.723 1.29 1.084 2.795 1.084 4.517 0 1.224-.202 2.35-.607 3.376-.404 1.027-.962 1.879-1.674 2.556-.713.677-1.485 1.145-2.315 1.405-.83.26-2.269.389-4.317.389h-3.62V10.393Z"
      fill="#1A1A1A"
    />
    <path
      d="M10.461 18.186c0-8.75 7.054-15.843 15.755-15.843.337 0 .67.014 1.002.036C23.853.46 19.828-.42 15.565.192 7.445 1.358 1.003 8.077.112 16.276-1.088 27.33 7.49 36.68 18.24 36.68c3.514 0 6.794-1.001 9.578-2.732-.526.053-1.06.08-1.6.08-8.702 0-15.756-7.093-15.756-15.843Z"
      fill="#FCCE00"
    />
    <path
      d="M41.878 18.21c0-8.388-6.483-15.246-14.673-15.764a18.307 18.307 0 0 1 9.21 15.918A18.312 18.312 0 0 1 27.8 33.93c7.906-.804 14.077-7.536 14.077-15.72Z"
      fill="#1A1A1A"
    />
  </g>
</svg>
